images/header-bg-2.svg

<svg width="55" height="55" fill="none" xmlns="http://www.w3.org/2000/svg"><path d="M15.075 9.875l-8.85 8.85c-8.3 8.3-8.3 21.75 0 30.05s21.75 8.3 30.05 0L51.3 33.75c2.425-2.425 2.425-6.4 0-8.85-.3-.3-.625-.575-.975-.8l.975-.975c2.425-2.425 2.425-6.4 0-8.85-.4-.4-.875-.75-1.35-1.025 1-2.3.575-5.05-1.3-6.925-2.175-2.175-5.55-2.4-8-.7a6.795 6.795 0 00-.85-1.05c-2.425-2.425-6.4-2.425-8.85 0l-6.275 6.275c-.225-.35-.5-.675-.8-.975a6.232 6.232 0 00-8.8 0zm3.525 3.55c.5-.5 1.275-.5 1.775 0s.5 1.275 0 1.775l-7.95 7.95a7.5 7.5 0 010 10.6l3.525 3.525c3.625-3.625 4.55-8.925 2.8-13.4L34.5 8.125c.5-.5 1.275-.5 1.775 0s.5 1.275 0 1.775l-11.5 11.5 3.525 3.525L43.325 9.9c.5-.5 1.275-.5 1.775 0s.5 1.275 0 1.775L30.075 26.7l3.525 3.525L45.975 17.85c.5-.5 1.275-.5 1.775 0s.5 1.275 0 1.775L33.6 33.775l3.525 3.525 8.85-8.85c.5-.5 1.275-.5 1.775 0s.5 1.275 0 1.775l-15 15.025c-6.35 6.35-16.625 6.35-22.975 0-6.35-6.35-6.35-16.625 0-22.975l8.825-8.85zM55 40c0 8.275-6.725 15-15 15v-3.75c6.2 0 11.25-5.05 11.25-11.25H55zM0 15C0 6.725 6.725 0 15 0v3.75C8.8 3.75 3.75 8.8 3.75 15H0z" fill="#151515"/></svg>

<svg width="55" height="55" viewBox="0 0 55 55" fill="none" xmlns="http://www.w3.org/2000/svg">
<path d="M15.075 9.875L6.225 18.725C-2.075 27.025 -2.075 40.475 6.225 48.775C14.525 57.075 27.975 57.075 36.275 48.775L51.3 33.75C53.725 31.325 53.725 27.35 51.3 24.9C51 24.6 50.675 24.325 50.325 24.1L51.3 23.125C53.725 20.7 53.725 16.725 51.3 14.275C50.9 13.875 50.425 13.525 49.95 13.25C50.95 10.95 50.525 8.2 48.65 6.325C46.475 4.15 43.1 3.925 40.65 5.625C40.4 5.25 40.125 4.9 39.8 4.575C37.375 2.15 33.4 2.15 30.95 4.575L24.675 10.85C24.45 10.5 24.175 10.175 23.875 9.875C21.45 7.45 17.5 7.45 15.075 9.875ZM18.6 13.425C19.1 12.925 19.875 12.925 20.375 13.425C20.875 13.925 20.875 14.7 20.375 15.2L12.425 23.15C15.35 26.075 15.35 30.825 12.425 33.75L15.95 37.275C19.575 33.65 20.5 28.35 18.75 23.875L34.5 8.125C35 7.625 35.775 7.625 36.275 8.125C36.775 8.625 36.775 9.4 36.275 9.9L24.775 21.4L28.3 24.925L43.325 9.9C43.825 9.4 44.6 9.4 45.1 9.9C45.6 10.4 45.6 11.175 45.1 11.675L30.075 26.7L33.6 30.225L45.975 17.85C46.475 17.35 47.25 17.35 47.75 17.85C48.25 18.35 48.25 19.125 47.75 19.625L33.6 33.775L37.125 37.3L45.975 28.45C46.475 27.95 47.25 27.95 47.75 28.45C48.25 28.95 48.25 29.725 47.75 30.225L32.75 45.25C26.4 51.6 16.125 51.6 9.775 45.25C3.425 38.9 3.425 28.625 9.775 22.275L18.6 13.425ZM55 40C55 48.275 48.275 55 40 55V51.25C46.2 51.25 51.25 46.2 51.25 40H55ZM0 15C0 6.725 6.725 0 15 0V3.75C8.8 3.75 3.75 8.8 3.75 15H0Z" fill="#151515"/>
</svg>
